X:1
T:Title
%%score { ( 1 3 ) | ( 2 4 ) }
L:1/8
M:4/4
K:G
V:1 treble nm="Grand Piano"
V:3 treble 
V:2 treble 
V:4 treble 
V:1
 z4 z2[Q:1/4=100] D2 | B_B=B_B =BGFG | [EA]2 E2- E[EA][EA][EG] | [DF]2 [Fd]2 [FA]2 [F_B]2 | %4
[M:3/4] B6 |[M:1/4] D2 |[M:4/4] B_B=B_B =BGFG | [EA]2 E2- EE^DE | [^CA]2 [CE]2 [CB]2 [CA]2 | %9
[M:3/4] A6 |[M:1/4] z E |[M:4/4] F2 F2 G2 [=F^G]2 | [FA]6 FG | [CFA]2 [CFA]2 [=FB]2 [FB]2 | %14
[M:3/4] [Fc]6 |[M:1/4] [cd]2 |[M:4/4] [Be]2 [Bd]2- [Bd]B_B=B | [^Gc]2 [GB]2 [G_B]2 [G=B]2 | e4 d4 | %19
[M:3/4] c6 |[M:1/4] A2 |[M:4/4] [Fd]2 [Fc]2 [CE]2 [CF]2 | [FB]2 [FA]2 [=F^G]2 [^FA]2 | d4 d4 | %24
[M:3/4] d6 |[M:1/4] [cd]2 |[M:4/4] [Be]2 [Bd]2- [Bd]B_B=B | [^Gc]2 [GB]2 [G_B]2 [G=B]2 | e4 d4 | %29
[M:3/4] c6 |[M:1/4] E2 |[M:4/4] G2 G2 F2 G2 | d2 B2 G2 D2 | [^CE]4 [=CA]4 |[M:3/4] [B,G]6 |] %35
V:2
 z4 z2 D,2 | [G,DG][G,^CG][G,DG][G,CG] [G,DG][K:bass][G,B,D][A,CD][G,B,D] | %2
 [C,C]2 [C,C]2- [C,C][C,C][C,C][C,C] | [D,C]2 [D,C]2 [D,D]2 [D,D]2 |[M:3/4][K:treble] [G,DG]6 | %5
[M:1/4] [G,B,]2 |[M:4/4] [G,DG][G,^CG][G,DG][G,CG] [G,DG][K:bass][G,B,D][A,=CD][G,B,D] | %7
 [C,C]2 [C,C]2- [C,C][C,G,C][C,F,C][C,G,C] | [A,,G,]2 [A,,G,]2 [A,,G,]2 [A,,G,]2 | %9
[M:3/4] [D,F,D]6 |[M:1/4] F,G, |[M:4/4] [D,A,D]2 [D,A,D]2 [D,B,D]2 [D,B,]2 | z4 z2 .A,2 | %13
 D,2 D,2 [D,^G,]2 [D,G,]2 |[M:3/4] [D,A,]6 |[M:1/4] [F,D]2 | %16
[M:4/4][K:treble] [G,D]2 [G,D]2- [G,D][G,DG][G,^CG][G,DG] | [E,D]2 [E,D]2 [E,^C]2 [E,D]2 | %18
 [A,CA]4 [B,E^G]4 |[M:3/4] [CEA]6 |[M:1/4][K:bass] [A,CE]2 | %21
[M:4/4] [D,A,]2 [D,A,]2 [D,A,]2 [D,A,]2 | [D,C]2 [D,C]2 [D,B,]2 [D,C]2 | [G,B,G]4 [^G,B,E]4 | %24
[M:3/4] [A,CF]6 |[M:1/4][K:bass] [F,D]2 | %26
[M:4/4] [G,D]2[K:treble] [G,D]2- [G,D][G,DG][G,^CG][G,DG] | [E,D]2 [E,D]2 [E,^C]2 [E,D]2 | %28
 [A,CA]4 [B,E^G]4 |[M:3/4] [CEA]6 |[M:1/4][K:bass] E,2 | %31
[M:4/4] [E,_B,^C]2 [E,B,C]2 [E,B,C]2 [E,B,C]2 | [D,B,D]2 [D,G,D]2 [D,B,D]2 [D,G,B,]2 | %33
 [A,,G,]4 [D,F,]4 |[M:3/4] [G,,G,]6 |] %35
V:3
 x8 | x8 | x8 | x8 |[M:3/4] x6 |[M:1/4] x2 |[M:4/4] x8 | x8 | x8 |[M:3/4] x6 |[M:1/4] D2 | %11
[M:4/4] x8 | x8 | x8 |[M:3/4] x6 |[M:1/4] x2 |[M:4/4] x8 | x8 | x8 |[M:3/4] x6 |[M:1/4] x2 | %21
[M:4/4] x8 | x8 | x8 |[M:3/4] x6 |[M:1/4] x2 |[M:4/4] x8 | x8 | x8 |[M:3/4] x6 |[M:1/4] x2 | %31
[M:4/4] x8 | x8 | x8 |[M:3/4] x6 |] %35
V:4
 x8 | x5[K:bass] x3 | x8 | x8 |[M:3/4][K:treble] x6 |[M:1/4] x2 |[M:4/4] x5[K:bass] x3 | x8 | x8 | %9
[M:3/4] x6 |[M:1/4] D,2 |[M:4/4] x8 | [D,C]6 [D,D]-[D,B,D] | x8 |[M:3/4] x6 |[M:1/4] x2 | %16
[M:4/4][K:treble] x8 | x8 | x8 |[M:3/4] x6 |[M:1/4][K:bass] x2 |[M:4/4] x8 | x8 | x8 |[M:3/4] x6 | %25
[M:1/4][K:bass] x2 |[M:4/4] x2[K:treble] x6 | x8 | x8 |[M:3/4] x6 |[M:1/4][K:bass] x2 |[M:4/4] x8 | %32
 x8 | x8 |[M:3/4] x6 |] %35

